X: 24
T:Waltz. CJF.024
M:3/8
L:1/16
Q:50
S:C.J.Fox MS, 1829/33, Beverley,E.Yorks.
R:Waltz
O:England
A:East Yorkshire
B:Kidson Coll.Mitchell Lib.M1805
Z:vmp.P J Headford 2000
K:D
fe|d2 dc d2|d'4f2|g2gab2|e4dc|!
c2cBc2|a4((3gec)|dcdfec|d4:|!
|:fe|dcdcdc|defgab|a^gagag|a4Bc|!
dcdcdc|defgab|abc'd'e'c'|d'4:|!
|:fg|a<d' f<a d<f|A4f2|g<b e<g f<a|g<b e<g f<a|!
a<d' f<a d<f|A4f2|e<g c<e A<c|d4:|!
|:f2|fgfgfg|fgfedc|B^ABcdc|B2f2f2|!
fgfgfg|fgfedc|B^ABcdc|B4fg|!
a<d' f<a d<f|A4f2|g<b e<g f<a|g<b e<g f<a|!
a<d' f<a d<f|A4f2|e<g c<e A<c|d4:|]
